symbols/web/today/materialsymbolsrounded/today_wght200grad200fill1_24px.svg

<svg xmlns="http://www.w3.org/2000/svg" height="24" width="24"><path d="M8.95 16.125q-.975 0-1.675-.7-.7-.7-.7-1.675 0-.975.7-1.675.7-.7 1.675-.7.975 0 1.675.7.7.7.7 1.675 0 .975-.7 1.675-.7.7-1.675.7ZM5.475 21.75q-.975 0-1.625-.65t-.65-1.625V6.425q0-.975.65-1.625t1.625-.65h.95V2.875q0-.35.263-.6.262-.25.612-.25t.6.25q.25.25.25.6V4.15h7.775v-1.3q0-.35.238-.588.237-.237.587-.237.325 0 .575.237.25.238.25.588v1.3h.95q.975 0 1.625.65t.65 1.625v13.05q0 .975-.65 1.625t-1.625.65Zm0-1.65h13.05q.275 0 .45-.175t.175-.45v-9.35H4.85v9.35q0 .275.175.45t.45.175Z"/></svg>

<svg xmlns="http://www.w3.org/2000/svg" height="24" width="24"><path d="M8.95 16.125Q7.975 16.125 7.275 15.425Q6.575 14.725 6.575 13.75Q6.575 12.775 7.275 12.075Q7.975 11.375 8.95 11.375Q9.925 11.375 10.625 12.075Q11.325 12.775 11.325 13.75Q11.325 14.725 10.625 15.425Q9.925 16.125 8.95 16.125ZM5.475 21.75Q4.5 21.75 3.85 21.1Q3.2 20.45 3.2 19.475V6.425Q3.2 5.45 3.85 4.8Q4.5 4.15 5.475 4.15H6.425V2.875Q6.425 2.525 6.688 2.275Q6.95 2.025 7.3 2.025Q7.65 2.025 7.9 2.275Q8.15 2.525 8.15 2.875V4.15H15.925V2.85Q15.925 2.5 16.163 2.262Q16.4 2.025 16.75 2.025Q17.075 2.025 17.325 2.262Q17.575 2.5 17.575 2.85V4.15H18.525Q19.5 4.15 20.15 4.8Q20.8 5.45 20.8 6.425V19.475Q20.8 20.45 20.15 21.1Q19.5 21.75 18.525 21.75ZM5.475 20.1H18.525Q18.8 20.1 18.975 19.925Q19.15 19.75 19.15 19.475V10.125H4.85V19.475Q4.85 19.75 5.025 19.925Q5.2 20.1 5.475 20.1Z"/></svg>
